overrides/.icons/spell/conc.svg

<?xml version="1.0" encoding="UTF-8" standalone="no"?>
<svg
   viewBox="0 0 24 24"
   version="1.1"
   id="svg1"
   sodipodi:docname="concentration.svg"
   inkscape:version="1.3.2 (091e20e, 2023-11-25, custom)"
   xml:space="preserve"
   xmlns:inkscape="http://www.inkscape.org/namespaces/inkscape"
   xmlns:sodipodi="http://sodipodi.sourceforge.net/DTD/sodipodi-0.dtd"
   xmlns="http://www.w3.org/2000/svg"
   xmlns:svg="http://www.w3.org/2000/svg"><defs
     id="defs1"><inkscape:path-effect
       effect="fillet_chamfer"
       id="path-effect1"
       is_visible="true"
       lpeversion="1"
       nodesatellites_param="F,0,0,1,0,0,0,1 @ F,0,0,1,0,0,0,1 @ F,0,0,1,0,0.97862105,0,1 @ F,0,0,1,0,0,0,1 @ F,0,0,1,0,0,0,1 @ F,0,0,1,0,0,0,1 @ F,0,0,1,0,0,0,1 | F,0,0,1,0,0,0,1 @ F,0,0,1,0,0,0,1 @ F,0,0,1,0,0,0,1 @ F,0,0,1,0,0,0,1 @ F,0,1,1,0,0.97862105,0,1 @ F,0,0,1,0,0,0,1 @ F,0,0,1,0,0,0,1 | F,0,1,1,0,0.97862105,0,1 @ F,0,0,1,0,0,0,1 @ F,0,0,1,0,0,0,1 @ F,0,0,1,0,0,0,1 @ F,0,0,1,0,0,0,1 @ F,0,0,1,0,0,0,1 @ F,0,0,1,0,0,0,1 | F,0,1,1,0,0.97862105,0,1 @ F,0,0,1,0,0,0,1 @ F,0,0,1,0,0,0,1 @ F,0,0,1,0,0,0,1 @ F,0,0,1,0,0,0,1 @ F,0,0,1,0,0,0,1 @ F,0,0,1,0,0,0,1"
       radius="0"
       unit="px"
       method="auto"
       mode="F"
       chamfer_steps="1"
       flexible="false"
       use_knot_distance="true"
       apply_no_radius="true"
       apply_with_radius="true"
       only_selected="false"
       hide_knots="false" /></defs><sodipodi:namedview
     id="namedview1"
     pagecolor="#ffffff"
     bordercolor="#666666"
     borderopacity="1.0"
     inkscape:showpageshadow="2"
     inkscape:pageopacity="0.0"
     inkscape:pagecheckerboard="0"
     inkscape:deskcolor="#d1d1d1"
     inkscape:zoom="7.9107571"
     inkscape:cx="8.4694801"
     inkscape:cy="14.347552"
     inkscape:window-width="1360"
     inkscape:window-height="715"
     inkscape:window-x="-8"
     inkscape:window-y="-8"
     inkscape:window-maximized="1"
     inkscape:current-layer="svg1" /><path
     id="path1"
     style="stroke-width:1"
     d="M 4.2226562,2 C 3.0004366,2 2,3.0004366 2,4.2226562 V 7.6073164 C 2,8.1477939 2.2738955,8.2430099 2.645089,7.8503322 3.1310547,7.3362394 3.6585398,6.8618443 4.2226562,6.4335938 V 4.2226562 H 8.6660156 V 2 Z M 15.333984,2 v 2.2226562 h 4.44336 v 2.2109376 c 0.564118,0.4282521 1.091605,0.9026491 1.577572,1.4167441 C 21.726107,8.2430128 22,8.1477939 22,7.6073164 L 22,4.2226562 C 22,3.0004366 20.999564,2 19.777344,2 Z M 2,16.392683 v 3.384661 C 2,20.999564 3.0004366,22 4.2226562,22 H 8.6660156 V 19.777344 H 4.2226562 V 17.566406 C 3.6585376,17.138154 3.1310507,16.663757 2.6450835,16.149662 2.2738932,15.756987 2,15.852206 2,16.392683 Z m 19.354911,-0.243016 c -0.485966,0.514094 -1.013451,0.988489 -1.577567,1.416739 v 2.210938 h -4.44336 V 22 h 4.44336 C 20.999564,22 22,20.999564 22,19.777344 v -3.384661 c 0,-0.540477 -0.273895,-0.635693 -0.645089,-0.243016 z"
     inkscape:path-effect="#path-effect1"
     inkscape:original-d="M 4.2226562 2 C 3.0004366 2 2 3.0004366 2 4.2226562 L 2 8.5859375 C 2.6525376 7.7834003 3.3985038 7.0592514 4.2226562 6.4335938 L 4.2226562 4.2226562 L 8.6660156 4.2226562 L 8.6660156 2 L 4.2226562 2 z M 15.333984 2 L 15.333984 4.2226562 L 19.777344 4.2226562 L 19.777344 6.4335938 C 20.601496 7.0592514 21.347462 7.7834003 22 8.5859375 L 22 4.2226562 C 22 3.0004366 20.999564 2 19.777344 2 L 15.333984 2 z M 2 15.414062 L 2 19.777344 C 2 20.999564 3.0004366 22 4.2226562 22 L 8.6660156 22 L 8.6660156 19.777344 L 4.2226562 19.777344 L 4.2226562 17.566406 C 3.3985038 16.940749 2.6525376 16.2166 2 15.414062 z M 22 15.414062 C 21.347462 16.2166 20.601496 16.940749 19.777344 17.566406 L 19.777344 19.777344 L 15.333984 19.777344 L 15.333984 22 L 19.777344 22 C 20.999564 22 22 20.999564 22 19.777344 L 22 15.414062 z " /><path
     d="M 12,9.4090906 A 2.5909091,2.5909091 0 0 0 9.4090907,12 2.5909091,2.5909091 0 0 0 12,14.590909 2.5909091,2.5909091 0 0 0 14.590909,12 2.5909091,2.5909091 0 0 0 12,9.4090906 m 0,6.9090904 A 4.3181818,4.3181818 0 0 1 7.6818177,12 4.3181818,4.3181818 0 0 1 12,7.6818176 4.3181818,4.3181818 0 0 1 16.318182,12 4.3181818,4.3181818 0 0 1 12,16.318181 M 12,5.522727 c -4.3181823,0 -8.0059093,2.6859093 -9.5,6.477273 1.4940907,3.791363 5.1818177,6.477273 9.5,6.477273 4.318182,0 8.005909,-2.68591 9.5,-6.477273 C 20.005909,8.2086363 16.318182,5.522727 12,5.522727 Z"
     id="path1-0"
     style="stroke-width:0.999998" /></svg>

<?xml version="1.0" encoding="UTF-8"?>
<svg id="svg1" version="1.1" viewBox="0 0 24 24" xml:space="preserve" xmlns="http://www.w3.org/2000/svg"><path id="path1" d="m4.2227 2c-1.2222 0-2.2227 1.0004-2.2227 2.2227v3.3847c0 0.54048 0.2739 0.63569 0.64509 0.24302 0.48597-0.51409 1.0135-0.98849 1.5776-1.4167v-2.2109h4.4434v-2.2227zm11.111 0v2.2227h4.4434v2.2109c0.56412 0.42825 1.0916 0.90265 1.5776 1.4167 0.37119 0.39267 0.64508 0.29746 0.64508-0.24302v-3.3847c0-1.2222-1.0004-2.2227-2.2227-2.2227zm-13.334 14.393v3.3847c0 1.2222 1.0004 2.2227 2.2227 2.2227h4.4434v-2.2227h-4.4434v-2.2109c-0.56412-0.42825-1.0916-0.90265-1.5776-1.4167-0.37119-0.39268-0.64508-0.29746-0.64508 0.24302zm19.355-0.24302c-0.48597 0.51409-1.0135 0.98849-1.5776 1.4167v2.2109h-4.4434v2.2227h4.4434c1.2222 0 2.2227-1.0004 2.2227-2.2227v-3.3847c0-0.54048-0.2739-0.63569-0.64509-0.24302z"/><path id="path1-0" d="m12 9.4091a2.5909 2.5909 0 0 0-2.5909 2.5909 2.5909 2.5909 0 0 0 2.5909 2.5909 2.5909 2.5909 0 0 0 2.5909-2.5909 2.5909 2.5909 0 0 0-2.5909-2.5909m0 6.9091a4.3182 4.3182 0 0 1-4.3182-4.3182 4.3182 4.3182 0 0 1 4.3182-4.3182 4.3182 4.3182 0 0 1 4.3182 4.3182 4.3182 4.3182 0 0 1-4.3182 4.3182m0-10.795c-4.3182 0-8.0059 2.6859-9.5 6.4773 1.4941 3.7914 5.1818 6.4773 9.5 6.4773 4.3182 0 8.0059-2.6859 9.5-6.4773-1.4941-3.7914-5.1818-6.4773-9.5-6.4773z"/></svg>
